packages/core/src/svgs/tokens/branded/ASIA.svg

<svg width="24" height="24" viewBox="0 0 24 24" fill="none" xmlns="http://www.w3.org/2000/svg">
<path fill-rule="evenodd" clip-rule="evenodd" d="M11.3757 17.9324L11.5229 17.9206C14.6996 18.0264 17.7588 16.6617 19.3708 13.8967C21.0474 11.014 20.365 7.6018 17.9883 5.30744L17.7765 5.10741L17.7647 5.11917L16.547 4.21908C14.7407 3.16912 12.6255 2.78018 10.5639 3.11895C5.22802 3.98376 1.72763 9.38431 4.92799 14.3613L4.90446 14.4143L4.88681 14.4437L5.02212 14.5026C5.98841 15.8156 7.32064 16.8142 8.85196 17.3734L8.98727 17.4323V17.4205C9.75802 17.6914 10.561 17.8595 11.3757 17.9206V17.9324ZM16.8235 6.84878L16.7058 6.8429C16.658 6.83997 16.6125 6.82135 16.5764 6.78996C16.4193 6.65657 16.2332 6.56204 16.0328 6.51399C15.8325 6.46596 15.6237 6.46577 15.4233 6.51346L15.0115 6.81349C14.9585 6.84878 14.9173 6.8429 14.8761 6.8076C14.6761 6.61935 14.4527 6.60169 14.2113 6.74878C14.1881 6.764 14.1617 6.77354 14.1341 6.7766C14.1065 6.77968 14.0786 6.77618 14.0525 6.76642L13.8466 6.67818C13.5113 6.51933 13.2701 6.41344 12.8819 6.71347C12.8179 6.76308 12.7393 6.79001 12.6583 6.79001C12.5773 6.79001 12.4986 6.76308 12.4347 6.71347L12.3111 6.61935C12.0171 6.38402 11.6758 6.09576 11.2934 6.31343L10.9169 6.50757C10.864 6.53109 10.8228 6.51933 10.7992 6.46639C10.4404 5.75454 10.2463 5.80749 9.88732 5.9075C9.74031 5.94868 9.55788 6.00163 9.32259 6.00752C8.9108 5.97221 8.58722 6.10164 8.36955 6.38402C8.35233 6.40519 8.33975 6.42976 8.33266 6.45612C8.32556 6.48247 8.3241 6.51002 8.32837 6.53698L8.38132 6.93114C8.38721 6.98409 8.38132 6.98998 8.34603 6.94879L7.99892 6.47227C7.99047 6.46107 7.97988 6.45167 7.96776 6.4446C7.95564 6.43753 7.94223 6.43293 7.92833 6.43109C7.91465 6.42954 7.90079 6.43082 7.88764 6.43487C7.87447 6.43892 7.8623 6.44564 7.85185 6.45462L7.64006 6.637C7.62904 6.64803 7.62074 6.6615 7.61584 6.67633C7.61096 6.69114 7.6096 6.7069 7.61189 6.72234C7.61417 6.73777 7.62004 6.75246 7.62902 6.76522C7.638 6.77799 7.64983 6.78846 7.66359 6.79583L7.79891 6.87232C7.80298 6.87461 7.80628 6.87809 7.80838 6.88229C7.81048 6.88647 7.81127 6.8912 7.81067 6.89585L7.79891 6.90761H7.78714L7.46946 6.87232C7.44862 6.87035 7.42764 6.87426 7.40892 6.88362C7.3902 6.89298 7.37448 6.90741 7.36355 6.92527C7.14588 7.27235 7.19295 7.54298 7.51064 7.74889C7.5577 7.78418 7.56358 7.81949 7.53417 7.86654C7.25179 8.29601 7.65182 8.54897 7.98127 8.75488L8.19307 8.90196C8.22836 8.92549 8.22248 8.93725 8.1813 8.93138L7.38121 8.85489C7.35102 8.85117 7.32053 8.85872 7.29556 8.8761C7.27059 8.89346 7.25291 8.91942 7.2459 8.94902C7.239 8.97791 7.24225 9.0083 7.25511 9.03509C7.26796 9.06187 7.28963 9.0834 7.3165 9.0961L7.78125 9.31376C7.79121 9.31884 7.79968 9.32639 7.80587 9.33558C7.81204 9.34492 7.81572 9.35562 7.81655 9.36674C7.81748 9.37773 7.81585 9.38871 7.81176 9.39887C7.80767 9.40916 7.80125 9.41822 7.79302 9.4255L7.54006 9.64321C7.53227 9.64938 7.52619 9.65748 7.5224 9.66682C7.5199 9.67643 7.5199 9.68658 7.5224 9.69619C7.52151 9.70196 7.52151 9.708 7.5224 9.71376C7.5224 9.72557 7.53417 9.73147 7.54006 9.73737L7.99305 10.1374C8.01367 10.1544 8.02856 10.1772 8.03566 10.203C8.04275 10.2287 8.04172 10.256 8.03271 10.2811C8.02369 10.3062 8.00712 10.3279 7.98528 10.3433C7.96343 10.3587 7.93737 10.3669 7.91067 10.3668C7.72242 10.3668 7.62829 10.2903 7.62242 10.1139C7.62153 10.0874 7.61472 10.0616 7.6025 10.0381C7.59028 10.0148 7.57296 9.99434 7.55182 9.97856C7.27165 9.77238 6.94371 9.64087 6.59877 9.59612C6.57629 9.59269 6.55327 9.59653 6.53315 9.6071C6.51301 9.61767 6.49683 9.63442 6.48699 9.65501C6.47574 9.67601 6.47196 9.70031 6.47622 9.72378C6.48049 9.74726 6.49259 9.76867 6.51053 9.78446L6.60465 9.86682L6.61642 9.87849V9.89029C6.61543 9.89455 6.61325 9.89853 6.61012 9.90169C6.607 9.90484 6.60306 9.9069 6.59877 9.908H6.59288L5.73396 9.89029C5.6702 9.88782 5.6077 9.90855 5.55797 9.9485C5.50825 9.98858 5.47465 10.0451 5.46335 10.108C5.3751 10.5551 5.96929 10.4904 6.22814 10.4609H6.25755C6.30473 10.4553 6.35235 10.4671 6.39139 10.4943C6.43042 10.5213 6.45816 10.5618 6.46935 10.6081C6.48081 10.6563 6.47392 10.7072 6.44999 10.7507C6.42608 10.7941 6.38683 10.8272 6.33992 10.8434L6.08106 10.9257C6.05386 10.934 6.02927 10.9492 6.00968 10.9698C5.9901 10.9904 5.97618 11.0158 5.96929 11.0434C5.96298 11.0716 5.96401 11.1012 5.97224 11.1289C5.98047 11.1567 5.99565 11.1819 6.01635 11.2022L6.43404 11.614L6.46346 11.6022L6.53993 11.72C6.92821 11.9905 6.99881 12.2494 7.09883 12.5905C7.12236 12.6729 7.14588 12.7671 7.18119 12.8612C7.18755 12.8824 7.19975 12.9013 7.2164 12.916C7.23305 12.9306 7.25346 12.94 7.27532 12.9436C7.54004 12.9966 7.74596 12.973 7.89303 12.873C8.1813 12.6788 8.46957 12.4965 8.7696 12.32C8.90491 12.2376 8.96962 12.1082 8.94609 11.9259C8.94433 11.9028 8.93699 11.8807 8.92469 11.8612C8.91238 11.8417 8.89549 11.8255 8.87549 11.814C8.76738 11.7506 8.64782 11.7091 8.52365 11.692C8.39948 11.6748 8.27315 11.6824 8.15188 11.7141C8.09305 11.7259 8.04599 11.7141 8.00481 11.6611L7.73418 11.3198C7.72636 11.312 7.72092 11.3021 7.71848 11.2913C7.71604 11.2806 7.7167 11.2692 7.72039 11.2587C7.72407 11.2483 7.73064 11.2391 7.73933 11.2322C7.74801 11.2254 7.75847 11.2211 7.76949 11.2199C7.78276 11.215 7.79738 11.215 7.81067 11.2199C7.95774 11.2845 8.08717 11.3552 8.20483 11.4199C8.56957 11.614 8.85196 11.7669 9.39315 11.6493C9.41676 11.6434 9.44023 11.6493 9.46385 11.6552C9.48732 11.667 9.50503 11.6847 9.51093 11.7141C9.61676 11.9553 9.79329 12.0906 10.058 12.1082C10.105 12.1141 10.1344 12.1434 10.1462 12.1905C10.2227 12.6023 10.3698 12.9907 10.5757 13.3554C10.588 13.3779 10.6072 13.3959 10.6305 13.4066C10.6538 13.4172 10.6801 13.4199 10.705 13.4142C10.7992 13.3907 10.8581 13.3142 10.8816 13.1789L10.7874 13.073C10.811 13.0494 10.8463 13.0378 10.8698 13.0319L10.8345 12.7024C10.8286 12.6435 10.8522 12.626 10.9109 12.6435L11.0875 12.6847C11.1122 12.691 11.1381 12.6901 11.1623 12.6817C11.1863 12.6733 11.2075 12.6579 11.2228 12.6376L11.6699 12.0141C11.6869 11.9916 11.7093 11.9739 11.735 11.9625C11.7608 11.9513 11.7891 11.9467 11.8169 11.9493C11.8449 11.9522 11.8717 11.9624 11.8945 11.979C11.9171 11.9955 11.9351 12.0177 11.9464 12.0435C12.0817 12.32 12.2758 12.5377 12.5465 12.6906C12.5877 12.7141 12.6171 12.7495 12.623 12.8082C12.6817 13.2201 12.8524 13.579 13.1231 13.8967L13.1642 13.9554C13.1877 14.0143 13.1759 14.0261 13.129 13.9849C12.9583 13.8261 12.7229 13.6555 12.4817 13.679C12.4347 13.6849 12.423 13.7083 12.4583 13.7495L13.1642 14.6143L13.2819 14.685L13.2583 14.7438C13.3524 14.8556 13.4466 14.9203 13.5524 14.9615C13.5625 14.9649 13.5732 14.9657 13.5835 14.9637C13.5939 14.9616 13.6035 14.9568 13.6113 14.9497C13.62 14.9427 13.6267 14.9336 13.6308 14.9233C13.6349 14.913 13.6363 14.9019 13.6348 14.8909C13.6054 14.6228 13.4874 14.3724 13.2995 14.179C13.297 14.1745 13.2956 14.1694 13.2956 14.1643C13.2956 14.1591 13.297 14.154 13.2995 14.1497C13.3043 14.1433 13.3111 14.1392 13.3189 14.1381C13.3266 14.137 13.3345 14.1391 13.3406 14.1438L13.3583 14.1556H13.3701L13.3818 14.1613C13.3986 14.17 13.4171 14.1745 13.4359 14.1745C13.4547 14.1745 13.4732 14.17 13.49 14.1613C13.5067 14.1527 13.5211 14.1402 13.532 14.1248C13.5428 14.1094 13.5498 14.0917 13.5524 14.0731C13.556 14.0489 13.5519 14.0243 13.5408 14.0025L12.9759 12.8847C12.9688 12.8692 12.9666 12.8518 12.9697 12.8349C12.9729 12.818 12.9813 12.8025 12.9936 12.7907C13.0068 12.7801 13.0229 12.7739 13.0397 12.7728C13.0566 12.7719 13.0734 12.776 13.0878 12.7848C13.2466 12.8788 13.3583 13.0201 13.4289 13.1966C13.4996 13.3966 13.6289 13.4496 13.8172 13.3672C13.9995 13.2849 14.0996 13.1907 14.1173 13.073C14.1349 12.9848 14.0819 12.8788 13.9643 12.7436C13.8527 12.607 13.7306 12.4792 13.5995 12.3612C13.5951 12.3489 13.5943 12.3358 13.5975 12.3231C13.6006 12.3105 13.6075 12.2993 13.6172 12.2906C13.6275 12.2833 13.6399 12.2792 13.6525 12.2788L13.9761 12.2258C13.9938 12.2258 13.9995 12.2141 14.0054 12.2023C14.0054 12.1846 14.0113 12.173 14.0054 12.1612C14.0054 12.1377 14.0113 12.1259 14.029 12.12L14.8761 11.7728C14.9014 11.7621 14.9228 11.7441 14.9375 11.7209C14.9522 11.6979 14.9595 11.6708 14.9585 11.6434C14.9525 11.3375 14.8696 11.0381 14.7173 10.7728C14.7055 10.7522 14.6884 10.7353 14.6675 10.7239C14.6468 10.7125 14.6233 10.7071 14.5997 10.708H14.4409C14.3467 10.7021 14.3349 10.6668 14.3997 10.6022L14.5173 10.4845C14.5585 10.4375 14.5526 10.4022 14.4879 10.3845L14.0113 10.255C13.9993 10.2517 13.9883 10.245 13.9799 10.2355C13.9715 10.2262 13.9662 10.2145 13.9643 10.2022C13.963 10.1897 13.9651 10.1772 13.9703 10.1658C13.9754 10.1544 13.9835 10.1447 13.9938 10.1374C14.3349 9.9139 14.6409 10.2844 14.8761 10.5669L14.9938 10.7139C15.0097 10.7335 15.0313 10.7475 15.0557 10.7539C15.08 10.7602 15.1058 10.7585 15.1291 10.7492C15.2468 10.7139 15.3173 10.6316 15.3409 10.5021C15.344 10.4789 15.34 10.4553 15.3295 10.4343C15.319 10.4133 15.3025 10.396 15.2821 10.3845C15.0998 10.2903 15.0174 10.1492 15.0409 9.95509C15.0435 9.93093 15.0542 9.90841 15.0713 9.89125C15.0885 9.87423 15.1109 9.86339 15.135 9.86092C15.3644 9.84321 15.4998 9.71376 15.5527 9.47848C15.5578 9.4572 15.5699 9.43812 15.5869 9.4244C15.6038 9.41053 15.625 9.40271 15.6469 9.40202C15.6645 9.40202 15.688 9.40202 15.7057 9.41973C15.7234 9.4314 15.735 9.44911 15.7409 9.47258L15.9762 10.255C15.9939 10.3139 15.9764 10.3433 15.9175 10.3492C15.6174 10.3963 15.4292 10.561 15.3585 10.8434C15.349 10.8796 15.3512 10.918 15.3651 10.9529C15.3788 10.9879 15.4033 11.0174 15.4351 11.0375C15.4678 11.056 15.5058 11.0631 15.543 11.0578C15.5802 11.0524 15.6147 11.035 15.641 11.0081C15.8174 10.8434 16.0057 10.7198 16.2292 10.6493C16.2617 10.6369 16.2909 10.6171 16.3143 10.5916C16.3378 10.5661 16.355 10.5355 16.3646 10.5021C16.3758 10.4678 16.379 10.4314 16.3739 10.3957C16.3687 10.36 16.3555 10.326 16.3352 10.2962L16.094 9.94918C16.0847 9.936 16.0803 9.92008 16.0814 9.90402C16.0825 9.88796 16.0889 9.87272 16.0999 9.86092C16.1079 9.85241 16.118 9.84637 16.1293 9.84321L16.388 9.77856C16.4469 9.76085 16.4469 9.73737 16.4116 9.7021C16.0586 9.36674 15.6939 9.04314 15.3232 8.73135C15.1232 8.55486 14.9232 8.52544 14.6761 8.49015C14.6172 8.47838 14.6056 8.44897 14.635 8.39602C14.7997 8.13128 15.0939 8.21952 15.3527 8.28424L15.5175 8.3313C15.5762 8.34306 15.5998 8.31954 15.6057 8.27248C15.6233 8.07245 15.7057 7.90772 15.8527 7.77831C15.8998 7.73712 15.9293 7.74889 15.9469 7.8136C16.0292 8.14894 16.1705 8.34306 16.3411 8.57839L16.4704 8.76076C16.5587 8.89607 16.6646 8.9196 16.7882 8.83136C16.8145 8.81246 16.8347 8.78619 16.8462 8.75584C16.8578 8.72549 16.8601 8.6924 16.8528 8.66075C16.8489 8.6398 16.8409 8.61983 16.8294 8.60193L16.4176 8.01361C16.4127 8.00836 16.4088 8.00241 16.4057 7.99598C16.4003 7.98203 16.399 7.96678 16.4022 7.95215C16.4053 7.9375 16.4127 7.9241 16.4235 7.91361C16.4317 7.90557 16.4418 7.89954 16.4528 7.89596L17.1941 7.64887C17.2084 7.64261 17.2206 7.63242 17.2294 7.61946C17.236 7.6103 17.2405 7.59991 17.2428 7.58891C17.2452 7.57792 17.2453 7.56657 17.2431 7.55554C17.2409 7.54452 17.2364 7.53406 17.2301 7.52482C17.2236 7.51558 17.2154 7.50775 17.2059 7.5018L17.1352 7.46062C17.0294 7.40768 17.0353 7.39002 17.1529 7.40179L17.6235 7.46062C17.6706 7.46062 17.7001 7.44297 17.7001 7.3959C17.7117 7.27824 17.7647 7.18999 17.8706 7.13117C17.8809 7.12541 17.8891 7.11673 17.8943 7.10624C17.8995 7.09577 17.9016 7.08397 17.9001 7.07234C17.8998 7.06105 17.8964 7.05007 17.8902 7.04068C17.8839 7.03129 17.8751 7.02391 17.8648 7.01939C17.6088 6.90775 17.332 6.85162 17.0528 6.85467H16.8235V6.84878ZM10.9816 13.6555C11.0345 13.7024 11.0757 13.7319 11.1169 13.7378C11.1757 13.7495 11.2051 13.7201 11.2051 13.6672C11.2147 13.591 11.2075 13.5137 11.1841 13.4405C11.1608 13.3674 11.1218 13.3002 11.0699 13.2437L10.9816 13.3613L10.9757 13.3554H10.9698V13.3495H10.958V13.3436L10.9405 13.3318C10.9061 13.3996 10.8861 13.4737 10.8816 13.5495L10.9992 13.626L10.9816 13.6555ZM10.9521 13.3024C10.9593 13.2939 10.9672 13.286 10.9757 13.2789L10.9816 13.2849C10.9729 13.2924 10.963 13.2983 10.9521 13.3024ZM15.1173 12.7554L15.0115 12.9613C14.9993 12.9841 14.995 13.0103 14.9993 13.0358C15.0035 13.0614 15.0162 13.0847 15.035 13.1024L15.5644 13.6908C15.5784 13.706 15.5959 13.7178 15.6153 13.7249C15.6348 13.7321 15.6557 13.7346 15.6763 13.7319C15.735 13.726 15.7703 13.6908 15.7762 13.6319C15.7746 13.604 15.7643 13.5772 15.7468 13.5554C15.5433 13.2503 15.407 12.9054 15.3468 12.5436C15.3232 12.3964 15.2409 12.2965 15.1114 12.2553C15.0937 12.2498 15.0748 12.2497 15.0571 12.2549C15.0392 12.2601 15.0234 12.2704 15.0115 12.2847C15.0002 12.2986 14.9932 12.3153 14.991 12.333C14.989 12.3507 14.992 12.3686 14.9997 12.3848L15.1173 12.6671C15.1234 12.681 15.1264 12.6961 15.1264 12.7112C15.1264 12.7264 15.1234 12.7414 15.1173 12.7554ZM14.4879 13.479C14.4643 13.8319 14.2878 13.9319 14.0761 14.0437C13.9938 14.0908 13.8996 14.1378 13.8113 14.2143C13.7943 14.2282 13.7826 14.2474 13.7784 14.2689C13.7741 14.2904 13.7774 14.3127 13.7879 14.3319C13.7879 14.3438 13.7995 14.3497 13.8113 14.3613C14.0643 14.5615 14.3585 14.6555 14.682 14.6555C14.7043 14.6574 14.7267 14.6529 14.7464 14.6425C14.7663 14.632 14.7827 14.6161 14.7938 14.5967C14.9585 14.2849 15.1409 13.5495 14.7585 13.3318C14.7317 13.3164 14.7013 13.3082 14.6702 13.3082C14.6394 13.3082 14.6089 13.3164 14.582 13.3318C14.5549 13.3461 14.532 13.3672 14.5155 13.3929C14.4989 13.4187 14.4895 13.4483 14.4879 13.479ZM15.8469 15.085L13.7172 14.8438C13.7135 14.8425 13.7092 14.8425 13.7055 14.8438C13.7021 14.8469 13.6999 14.851 13.6996 14.8556V14.8614C13.6937 14.8967 13.7172 14.9379 13.7643 14.979C13.8172 15.0202 13.8878 15.0556 13.9879 15.0968C14.2288 15.1763 14.4771 15.2315 14.7291 15.2615L14.7703 15.2674C15.0226 15.2928 15.2768 15.2928 15.5291 15.2674C15.6292 15.2556 15.7057 15.232 15.7646 15.2086C15.8233 15.1792 15.8586 15.1438 15.8586 15.1085V15.0909C15.8556 15.0875 15.8514 15.0854 15.8469 15.085Z" fill="url(#paint0_linear_364_4672)"/>
<path fill-rule="evenodd" clip-rule="evenodd" d="M20.3647 6.83107C19.1343 5.14081 17.4201 3.86362 15.4485 3.16826C13.4769 2.47289 11.3408 2.39209 9.32224 2.9365C3.59808 4.47786 0.291831 10.3314 2.90977 15.9616C3.53498 17.207 4.42199 18.3028 5.51005 19.1737C6.94468 20.3162 8.65919 21.0536 10.4753 21.3092C13.4404 21.7033 16.0348 21.0444 18.2644 19.3443C22.206 16.3322 23.2297 10.9962 20.3647 6.83695V6.83107ZM11.5048 18.703C17.4938 18.9737 23.1768 13.4083 19.7293 7.25465C17.5526 3.72484 13.4933 2.08347 9.50468 3.20713C4.92175 4.56611 1.79788 9.39605 3.95106 14.073C4.59819 15.2731 5.463 16.2498 6.55136 17.0146C8.01367 18.0257 9.72925 18.6084 11.5048 18.6971V18.703Z" fill="url(#paint1_linear_364_4672)"/>
<defs>
<linearGradient id="paint0_linear_364_4672" x1="11.9985" y1="2.06986" x2="11.9985" y2="25.8215" gradientUnits="userSpaceOnUse">
<stop stop-color="#112094"/>
<stop offset="1" stop-color="#1F1EF8"/>
</linearGradient>
<linearGradient id="paint1_linear_364_4672" x1="11.999" y1="2.59529" x2="11.999" y2="21.4209" gradientUnits="userSpaceOnUse">
<stop stop-color="#112094"/>
<stop offset="1" stop-color="#1F1EF8"/>
</linearGradient>
</defs>
</svg>

<svg xmlns="http://www.w3.org/2000/svg" width="24" height="24" fill="none" viewBox="0 0 24 24">
    <path fill="url(#ASIA__a)" fill-rule="evenodd" d="m11.376 17.932.147-.011c3.177.105 6.236-1.26 7.848-4.024 1.676-2.883.994-6.295-1.383-8.59l-.212-.2-.011.012-1.218-.9a9 9 0 0 0-5.983-1.1c-5.336.865-8.836 6.265-5.636 11.242l-.024.053-.017.03.135.059a8.3 8.3 0 0 0 3.83 2.87l.135.06v-.012a9.3 9.3 0 0 0 2.389.5zM16.824 6.85l-.118-.006a.22.22 0 0 1-.13-.053 1.31 1.31 0 0 0-1.153-.277l-.412.3c-.052.036-.094.03-.135-.005-.2-.189-.423-.206-.665-.06a.18.18 0 0 1-.159.018l-.205-.088c-.336-.159-.577-.265-.965.035a.365.365 0 0 1-.447 0l-.124-.094c-.294-.235-.635-.523-1.018-.306l-.376.195q-.08.036-.118-.042c-.359-.711-.553-.659-.912-.559-.147.042-.33.095-.564.1-.412-.035-.736.095-.953.377a.2.2 0 0 0-.042.153l.053.394c.006.053 0 .059-.035.018l-.347-.477a.1.1 0 0 0-.07-.04.1.1 0 0 0-.077.023l-.212.182a.1.1 0 0 0 .024.159l.135.076a.02.02 0 0 1 .012.024l-.012.012h-.012l-.318-.036a.11.11 0 0 0-.105.053c-.218.347-.171.618.147.824.047.035.053.07.023.118-.282.429.118.682.447.888l.212.147q.052.036-.012.03l-.8-.077a.123.123 0 0 0-.135.094.13.13 0 0 0 .07.147l.465.218a.066.066 0 0 1 .03.085.1.1 0 0 1-.018.027l-.253.217a.1.1 0 0 0-.018.024.1.1 0 0 0 0 .03v.017c0 .012.012.017.018.023l.453.4a.13.13 0 0 1-.082.23c-.189 0-.283-.077-.289-.253a.18.18 0 0 0-.07-.135 2.05 2.05 0 0 0-.953-.383.11.11 0 0 0-.112.059.106.106 0 0 0 .024.13l.094.082.011.011v.012a.02.02 0 0 1-.017.018h-.006l-.859-.018a.265.265 0 0 0-.27.218c-.089.447.505.382.764.353h.03a.194.194 0 0 1 .211.147.2.2 0 0 1-.13.235l-.258.083a.17.17 0 0 0-.112.117.17.17 0 0 0 .047.16l.418.411.03-.012.076.118c.388.27.459.53.559.87.023.083.047.177.082.271a.12.12 0 0 0 .094.083q.397.08.618-.071c.288-.194.577-.377.877-.553.135-.082.2-.212.176-.394a.14.14 0 0 0-.07-.112.95.95 0 0 0-.724-.1c-.059.012-.106 0-.147-.053l-.27-.341a.058.058 0 0 1 .004-.088.1.1 0 0 1 .03-.012.06.06 0 0 1 .042 0c.147.064.276.135.394.2.365.194.647.347 1.188.23.024-.007.047 0 .07.005q.037.016.048.06c.106.24.282.376.547.393q.07.01.088.082c.077.412.224.8.43 1.165a.12.12 0 0 0 .13.059q.14-.034.176-.235l-.095-.106a.2.2 0 0 1 .083-.041l-.035-.33q-.01-.087.076-.059l.177.042a.13.13 0 0 0 .135-.047l.447-.624a.17.17 0 0 1 .147-.065.16.16 0 0 1 .13.095c.135.276.329.494.6.647.04.023.07.058.076.117.059.412.23.771.5 1.089l.041.058q.036.09-.035.03c-.17-.159-.406-.33-.647-.306-.047.006-.059.03-.024.07l.706.865.118.071-.024.059a.7.7 0 0 0 .294.217q.015.006.032.003a.1.1 0 0 0 .027-.014.06.06 0 0 0 .024-.06 1.2 1.2 0 0 0-.335-.711.03.03 0 0 1 0-.03.03.03 0 0 1 .04-.005l.018.012h.012l.012.005a.117.117 0 0 0 .17-.088.1.1 0 0 0-.011-.07l-.565-1.118a.08.08 0 0 1 .018-.094.08.08 0 0 1 .094-.006c.159.094.27.235.34.412.072.2.2.253.39.17.181-.082.282-.176.3-.294.017-.088-.036-.194-.154-.33a3.5 3.5 0 0 0-.364-.382.07.07 0 0 1 .017-.07.1.1 0 0 1 .035-.012l.324-.053c.018 0 .023-.012.03-.024 0-.017.005-.029 0-.04q-.002-.034.023-.042l.847-.347a.135.135 0 0 0 .083-.13 1.8 1.8 0 0 0-.242-.87.13.13 0 0 0-.117-.065h-.16q-.138-.009-.04-.106l.117-.117c.042-.047.036-.083-.03-.1l-.476-.13a.07.07 0 0 1-.047-.053.07.07 0 0 1 .03-.065c.34-.223.647.147.882.43l.118.147a.12.12 0 0 0 .135.035q.177-.052.212-.247a.12.12 0 0 0-.059-.118q-.275-.14-.241-.429a.11.11 0 0 1 .094-.094c.23-.018.365-.147.418-.383a.1.1 0 0 1 .094-.076c.018 0 .041 0 .059.018q.026.017.035.053l.235.782q.028.087-.059.094-.451.07-.559.494a.18.18 0 0 0 .077.194.17.17 0 0 0 .206-.029 1.5 1.5 0 0 1 .588-.359.22.22 0 0 0 .136-.147.24.24 0 0 0-.03-.206l-.241-.347a.07.07 0 0 1 .006-.088.1.1 0 0 1 .03-.018l.258-.064c.059-.018.059-.042.024-.077a24 24 0 0 0-1.089-.97c-.2-.177-.4-.207-.647-.242q-.086-.016-.041-.094c.165-.265.459-.176.718-.112l.165.047c.058.012.082-.011.088-.059q.026-.3.247-.494.069-.061.094.036c.082.335.224.53.394.764l.13.183q.132.203.317.07a.17.17 0 0 0 .065-.17.2.2 0 0 0-.024-.06l-.411-.587-.012-.018a.076.076 0 0 1 .047-.1l.741-.247a.1.1 0 0 0 .035-.03.08.08 0 0 0-.023-.118l-.07-.04q-.16-.078.017-.06l.47.06c.048 0 .077-.018.077-.065a.32.32 0 0 1 .17-.265.06.06 0 0 0 .03-.059.06.06 0 0 0-.035-.053 2 2 0 0 0-.812-.164h-.23zm-5.842 6.807c.053.046.094.076.135.082.059.011.088-.018.088-.07a.53.53 0 0 0-.135-.424l-.088.117-.006-.006h-.006v-.005h-.012v-.006l-.018-.012a.6.6 0 0 0-.058.217l.117.077zm-.03-.354.024-.023.006.006a.1.1 0 0 1-.03.017m4.165-.547-.106.206a.12.12 0 0 0 .024.141l.53.589a.13.13 0 0 0 .111.04q.09-.009.1-.1a.14.14 0 0 0-.03-.076 2.6 2.6 0 0 1-.4-1.011c-.023-.148-.105-.248-.235-.289a.09.09 0 0 0-.1.03.1.1 0 0 0-.011.1l.117.282a.11.11 0 0 1 0 .088m-.63.724c-.023.353-.2.453-.41.565-.083.047-.177.094-.266.17a.094.094 0 0 0-.023.118c0 .012.011.018.023.03.253.2.547.293.871.293a.12.12 0 0 0 .112-.058c.165-.312.347-1.047-.036-1.265a.18.18 0 0 0-.176 0 .18.18 0 0 0-.094.147m1.36 1.606-2.13-.241h-.011a.02.02 0 0 0-.006.012v.005q-.008.055.064.118a1 1 0 0 0 .224.118c.24.08.49.135.741.165l.041.005q.38.039.76 0a1 1 0 0 0 .235-.058c.058-.03.094-.065.094-.1v-.018a.02.02 0 0 0-.012-.006" clip-rule="evenodd"/>
    <path fill="url(#ASIA__b)" fill-rule="evenodd" d="M20.365 6.831A10.33 10.33 0 0 0 9.322 2.936C3.598 4.479.292 10.332 2.91 15.963a9.7 9.7 0 0 0 2.6 3.212 10.27 10.27 0 0 0 4.965 2.135c2.965.394 5.56-.265 7.79-1.965 3.941-3.012 4.965-8.348 2.1-12.507zm-8.86 11.872c5.989.27 11.672-5.295 8.224-11.448-2.176-3.53-6.236-5.172-10.224-4.048-4.583 1.36-7.707 6.19-5.554 10.866a8.4 8.4 0 0 0 2.6 2.942 9.55 9.55 0 0 0 4.954 1.682z" clip-rule="evenodd"/>
    <defs>
        <linearGradient id="ASIA__a" x1="11.998" x2="11.998" y1="2.07" y2="25.822" gradientUnits="userSpaceOnUse">
            <stop stop-color="#112094"/>
            <stop offset="1" stop-color="#1F1EF8"/>
        </linearGradient>
        <linearGradient id="ASIA__b" x1="11.999" x2="11.999" y1="2.595" y2="21.421" gradientUnits="userSpaceOnUse">
            <stop stop-color="#112094"/>
            <stop offset="1" stop-color="#1F1EF8"/>
        </linearGradient>
    </defs>
</svg>
